X: 1
T: the Battle of the Somme
S: The Albion Country Band
R: march
N: This really should be a 9/8 march
M: 6/8
L: 1/8
%Q: 1/8=3D90
K: D
   faf \
| d3 c2d | edG B3   | A3  BdB | A3  d2e | faf  e3- | e2A faf \
| d3 c2d | edG B>cB | A3  BdB | A3  f2f | e>fe d3- | d3 :|
|: dcd \
| e3 A2e | ede fa2  | d2c def | g2z A2g | faf  e3- | e2A faf \
| d3 c2d | edG B3   | A3  BdB | A3  f2f | e>fe d3- | d3 :|
